frontend/manage/src/assets/svg/logo.svg

<svg fill="none" height="150" viewBox="0 0 150 150" width="150" xmlns="http://www.w3.org/2000/svg" xmlns:xlink="http://www.w3.org/1999/xlink"><mask id="a" fill="#fff"><path clip-rule="evenodd" d="m76.3526 125.25c28.9954 0 52.5004-23.505 52.5004-52.5s-23.505-52.5-52.5004-52.5c-28.995 0-52.5 23.505-52.5 52.5 0 8.6518 2.0928 16.8148 5.7998 24.0104l-9.3502 33.4656 35.5625-9.124c6.295 2.671 13.2189 4.148 20.4879 4.148z" fill="#fff" fill-rule="evenodd"/></mask><path d="m.1875.1875h149.625v149.625h-149.625z" fill="#10df99" stroke="#10df99" stroke-width=".375"/><path clip-rule="evenodd" d="m76.3526 125.25c28.9954 0 52.5004-23.505 52.5004-52.5s-23.505-52.5-52.5004-52.5c-28.995 0-52.5 23.505-52.5 52.5 0 8.6518 2.0928 16.8148 5.7998 24.0104l-9.3502 33.4656 35.5625-9.124c6.295 2.671 13.2189 4.148 20.4879 4.148z" fill="#fff" fill-rule="evenodd"/><path d="m29.6524 96.7604.3612.1009.0396-.1418-.0674-.1308zm-9.3502 33.4656-.3611-.101-.1748.626.6291-.161zm35.5625-9.124.1465-.345-.1168-.05-.1229.032zm72.6133-48.352c0 28.788-23.338 52.125-52.1254 52.125v.75c29.2024 0 52.8754-23.673 52.8754-52.875zm-52.1254-52.125c28.7874 0 52.1254 23.3372 52.1254 52.125h.75c0-29.2021-23.673-52.875-52.8754-52.875zm-52.125 52.125c0-28.7878 23.3371-52.125 52.125-52.125v-.75c-29.2021 0-52.875 23.6729-52.875 52.875zm5.7582 23.8387c-3.6803-7.1438-5.7582-15.248-5.7582-23.8387h-.75c0 8.7129 2.1077 16.9347 5.8414 24.1822zm-9.3224 33.7383 9.3502-33.4657-.7224-.2018-9.3501 33.4655zm35.1081-9.588-35.5624 9.124.1863.727 35.5625-9.125zm20.5811 4.136c-7.2177 0-14.0919-1.467-20.3414-4.118l-.2929.69c6.3405 2.69 13.3141 4.178 20.6343 4.178z" fill="#fff" mask="url(#a)"/><path clip-rule="evenodd" d="m74.5327 86.0294-8.2214-10.2794-1.2707 1.1449-1.1363-1.0484-21.9043 26.7415 6.2989 5.812 16.7868-20.4937 3.9077 4.8858-8.0242 9.7959 6.2989 5.812 7.1891-8.7763 7.0968 8.8733 6.3631-5.733-7.9205-9.903 4.0584-4.9547 16.468 20.5907 6.363-5.733-21.6054-27.014-1.2708 1.1449-1.1362-1.0484z" fill="#04c584" fill-rule="evenodd"/><g fill="#303030"><path d="m47.7033 63.806v-14.154h19.572v-2.814h-23.016v19.782h23.352v-2.814zm38.1327.294v-6.132h20.244v-11.55h-23.604v2.772h20.328v6.048h-20.244v11.718h24.192v-2.856z"/><path d="m47.7033 63.806h-2.25v2.25h2.25zm0-14.154v-2.25h-2.25v2.25zm19.572 0v2.25h2.25v-2.25zm0-2.814h2.25v-2.25h-2.25zm-23.016 0v-2.25h-2.25v2.25zm0 19.782h-2.25v2.25h2.25zm23.352 0v2.25h2.25v-2.25zm0-2.814h2.25v-2.25h-2.25zm-17.658 0v-14.154h-4.5v14.154zm-2.25-11.904h19.572v-4.5h-19.572zm21.822-2.25v-2.814h-4.5v2.814zm-2.25-5.064h-23.016v4.5h23.016zm-25.266 2.25v19.782h4.5v-19.782zm2.25 22.032h23.352v-4.5h-23.352zm25.602-2.25v-2.814h-4.5v2.814zm-2.25-5.064h-19.908v4.5h19.908zm18.2247 2.544h-2.25v2.25h2.25zm0-6.132v-2.25h-2.25v2.25zm20.244 0v2.25h2.25v-2.25zm0-11.55h2.25v-2.25h-2.25zm-23.604 0v-2.25h-2.25v2.25zm0 2.772h-2.25v2.25h2.25zm20.328 0h2.25v-2.25h-2.25zm0 6.048v2.25h2.25v-2.25zm-20.244 0v-2.25h-2.25v2.25zm0 11.718h-2.25v2.25h2.25zm24.192 0v2.25h2.25v-2.25zm0-2.856h2.25v-2.25h-2.25zm-18.666 0v-6.132h-4.5v6.132zm-2.25-3.882h20.244v-4.5h-20.244zm22.494-2.25v-11.55h-4.5v11.55zm-2.25-13.8h-23.604v4.5h23.604zm-25.854 2.25v2.772h4.5v-2.772zm2.25 5.022h20.328v-4.5h-20.328zm18.078-2.25v6.048h4.5v-6.048zm2.25 3.798h-20.244v4.5h20.244zm-22.494 2.25v11.718h4.5v-11.718zm2.25 13.968h24.192v-4.5h-24.192zm26.442-2.25v-2.856h-4.5v2.856zm-2.25-5.106h-20.916v4.5h20.916z"/></g></svg>

<svg
width="150"
height="150"
viewBox="0 0 150 150"
fill="none"
xmlns="http://www.w3.org/2000/svg"
>
    <rect
        x="0.1875"
        y="0.1875"
        width="149.625"
        height="149.625"
        fill="#10DF99"
        stroke="#10DF99"
        stroke-width="0.375"
    />
    <mask id="path-2-inside-1" fill="white">
        <path
        fill-rule="evenodd"
        clip-rule="evenodd"
        d="M76.3526 125.25C105.348 125.25 128.853 101.745 128.853 72.75C128.853 43.755 105.348 20.25 76.3526 20.25C47.3576 20.25 23.8526 43.755 23.8526 72.75C23.8526 81.4018 25.9454 89.5648 29.6524 96.7604L20.3022 130.226L55.8647 121.102C62.1597 123.773 69.0836 125.25 76.3526 125.25Z"
        />
    </mask>
    <path
        fill-rule="evenodd"
        clip-rule="evenodd"
        d="M76.3526 125.25C105.348 125.25 128.853 101.745 128.853 72.75C128.853 43.755 105.348 20.25 76.3526 20.25C47.3576 20.25 23.8526 43.755 23.8526 72.75C23.8526 81.4018 25.9454 89.5648 29.6524 96.7604L20.3022 130.226L55.8647 121.102C62.1597 123.773 69.0836 125.25 76.3526 125.25Z"
        fill="white"
    />
    <path
        d="M29.6524 96.7604L30.0136 96.8613L30.0532 96.7195L29.9858 96.5887L29.6524 96.7604ZM20.3022 130.226L19.9411 130.125L19.7663 130.751L20.3954 130.59L20.3022 130.226ZM55.8647 121.102L56.0112 120.757L55.8944 120.707L55.7715 120.739L55.8647 121.102ZM128.478 72.75C128.478 101.538 105.14 124.875 76.3526 124.875V125.625C105.555 125.625 129.228 101.952 129.228 72.75H128.478ZM76.3526 20.625C105.14 20.625 128.478 43.9622 128.478 72.75H129.228C129.228 43.5479 105.555 19.875 76.3526 19.875V20.625ZM24.2276 72.75C24.2276 43.9622 47.5647 20.625 76.3526 20.625V19.875C47.1505 19.875 23.4776 43.5479 23.4776 72.75H24.2276ZM29.9858 96.5887C26.3055 89.4449 24.2276 81.3407 24.2276 72.75H23.4776C23.4776 81.4629 25.5853 89.6847 29.319 96.9322L29.9858 96.5887ZM20.6634 130.327L30.0136 96.8613L29.2912 96.6595L19.9411 130.125L20.6634 130.327ZM55.7715 120.739L20.2091 129.863L20.3954 130.59L55.9579 121.465L55.7715 120.739ZM76.3526 124.875C69.1349 124.875 62.2607 123.408 56.0112 120.757L55.7183 121.447C62.0588 124.137 69.0324 125.625 76.3526 125.625V124.875Z"
        fill="white"
        mask="url(#path-2-inside-1)"
    />
    <path
        fill-rule="evenodd"
        clip-rule="evenodd"
        d="M74.5327 86.0294L66.3113 75.75L65.0406 76.8949L63.9043 75.8465L42 102.588L48.2989 108.4L65.0857 87.9063L68.9934 92.7921L60.9692 102.588L67.2681 108.4L74.4572 99.6237L81.554 108.497L87.9171 102.764L79.9966 92.861L84.055 87.9063L100.523 108.497L106.886 102.764L85.2806 75.75L84.0098 76.8949L82.8736 75.8465L74.5327 86.0294Z"
        fill="#04C584"
    />
    <path
        d="M47.7033 63.806V49.652H67.2753V46.838H44.2593V66.62H67.6113V63.806H47.7033ZM85.836 64.1V57.968H106.08V46.418H82.476V49.19H102.804V55.238H82.56V66.956H106.752V64.1H85.836Z"
        fill="#303030"
    />
    <path
        d="M47.7033 63.806H45.4533V66.056H47.7033V63.806ZM47.7033 49.652V47.402H45.4533V49.652H47.7033ZM67.2753 49.652V51.902H69.5253V49.652H67.2753ZM67.2753 46.838H69.5253V44.588H67.2753V46.838ZM44.2593 46.838V44.588H42.0093V46.838H44.2593ZM44.2593 66.62H42.0093V68.87H44.2593V66.62ZM67.6113 66.62V68.87H69.8613V66.62H67.6113ZM67.6113 63.806H69.8613V61.556H67.6113V63.806ZM49.9533 63.806V49.652H45.4533V63.806H49.9533ZM47.7033 51.902H67.2753V47.402H47.7033V51.902ZM69.5253 49.652V46.838H65.0253V49.652H69.5253ZM67.2753 44.588H44.2593V49.088H67.2753V44.588ZM42.0093 46.838V66.62H46.5093V46.838H42.0093ZM44.2593 68.87H67.6113V64.37H44.2593V68.87ZM69.8613 66.62V63.806H65.3613V66.62H69.8613ZM67.6113 61.556H47.7033V66.056H67.6113V61.556ZM85.836 64.1H83.586V66.35H85.836V64.1ZM85.836 57.968V55.718H83.586V57.968H85.836ZM106.08 57.968V60.218H108.33V57.968H106.08ZM106.08 46.418H108.33V44.168H106.08V46.418ZM82.476 46.418V44.168H80.226V46.418H82.476ZM82.476 49.19H80.226V51.44H82.476V49.19ZM102.804 49.19H105.054V46.94H102.804V49.19ZM102.804 55.238V57.488H105.054V55.238H102.804ZM82.56 55.238V52.988H80.31V55.238H82.56ZM82.56 66.956H80.31V69.206H82.56V66.956ZM106.752 66.956V69.206H109.002V66.956H106.752ZM106.752 64.1H109.002V61.85H106.752V64.1ZM88.086 64.1V57.968H83.586V64.1H88.086ZM85.836 60.218H106.08V55.718H85.836V60.218ZM108.33 57.968V46.418H103.83V57.968H108.33ZM106.08 44.168H82.476V48.668H106.08V44.168ZM80.226 46.418V49.19H84.726V46.418H80.226ZM82.476 51.44H102.804V46.94H82.476V51.44ZM100.554 49.19V55.238H105.054V49.19H100.554ZM102.804 52.988H82.56V57.488H102.804V52.988ZM80.31 55.238V66.956H84.81V55.238H80.31ZM82.56 69.206H106.752V64.706H82.56V69.206ZM109.002 66.956V64.1H104.502V66.956H109.002ZM106.752 61.85H85.836V66.35H106.752V61.85Z"
        fill="#303030"
/>
</svg>
